src/assets/svg/icons/fa/nuevos/classic/duotone/face-anguished classic duotone.svg

<svg xmlns="http://www.w3.org/2000/svg" viewBox="0 0 512 512"><!--! Font Awesome Pro 6.4.0 by @fontawesome - https://fontawesome.com License - https://fontawesome.com/license (Commercial License) Copyright 2023 Fonticons, Inc. --><defs><style>.fa-secondary{opacity:.4}</style></defs><path class="fa-primary" d="M192 128c-4.4 0-8.8 .3-13 .9c-21.2 2.8-40.6 12.4-56.1 26.8c-6.5 6-16.6 5.7-22.6-.8s-5.7-16.6 .8-22.6c20.1-18.7 45.5-31.5 73.7-35.2c5.6-.7 11.4-1.1 17.2-1.1c8.8 0 16 7.2 16 16s-7.2 16-16 16zm-15.6 64a32 32 0 1 1 0 64 32 32 0 1 1 0-64zm160 0a32 32 0 1 1 0 64 32 32 0 1 1 0-64zM333 128.9c-4.3-.6-8.6-.9-13-.9c-8.8 0-16-7.2-16-16s7.2-16 16-16c5.8 0 11.6 .4 17.2 1.1c28.2 3.7 53.7 16.4 73.7 35.2c6.5 6 6.8 16.2 .8 22.6s-16.2 6.8-22.6 .8c-15.5-14.5-34.8-24-56.1-26.8z"/><path class="fa-secondary" d="M256 512A256 256 0 1 0 256 0a256 256 0 1 0 0 512zm0-192c44.2 0 80 35.8 80 80c0 8.8-7.2 16-16 16H192c-8.8 0-16-7.2-16-16c0-44.2 35.8-80 80-80zM144.4 224a32 32 0 1 1 64 0 32 32 0 1 1 -64 0zm192-32a32 32 0 1 1 0 64 32 32 0 1 1 0-64zM192 128c-4.4 0-8.8 .3-13 .9c-21.2 2.8-40.6 12.4-56.1 26.8c-6.5 6-16.6 5.7-22.6-.8s-5.7-16.6 .8-22.6c20.1-18.7 45.5-31.5 73.7-35.2c5.6-.7 11.4-1.1 17.2-1.1c8.8 0 16 7.2 16 16s-7.2 16-16 16zm141 .9c-4.3-.6-8.6-.9-13-.9c-8.8 0-16-7.2-16-16s7.2-16 16-16c5.8 0 11.6 .4 17.2 1.1c28.2 3.7 53.7 16.4 73.7 35.2c6.5 6 6.8 16.2 .8 22.6s-16.2 6.8-22.6 .8c-15.5-14.5-34.8-24-56.1-26.8z"/></svg>

<svg xmlns="http://www.w3.org/2000/svg" viewBox="0 0 512 512"><defs><style>.fa-secondary{opacity:.4}</style></defs><path class="fa-primary" d="M192 128C187.6 128 183.2 128.3 178.1 128.9C157.8 131.7 138.4 141.2 122.9 155.7C116.5 161.7 106.3 161.4 100.3 154.9C94.28 148.5 94.62 138.3 101.1 132.3C121.1 113.6 146.6 100.9 174.8 97.13C180.4 96.38 186.2 96 192 96C200.8 96 208 103.2 208 112C208 120.8 200.8 128 192 128zM144.4 224C144.4 206.3 158.7 192 176.4 192C194 192 208.4 206.3 208.4 224C208.4 241.7 194 256 176.4 256C158.7 256 144.4 241.7 144.4 224zM304.4 224C304.4 206.3 318.7 192 336.4 192C354 192 368.4 206.3 368.4 224C368.4 241.7 354 256 336.4 256C318.7 256 304.4 241.7 304.4 224zM333 128.9C328.8 128.3 324.4 128 320 128C311.2 128 304 120.8 304 112C304 103.2 311.2 96 320 96C325.8 96 331.6 96.38 337.2 97.13C365.4 100.9 390.9 113.6 410.9 132.3C417.4 138.3 417.7 148.5 411.7 154.9C405.7 161.4 395.5 161.7 389.1 155.7C373.6 141.2 354.2 131.7 333 128.9z"/><path class="fa-secondary" d="M0 256C0 114.6 114.6 0 256 0C397.4 0 512 114.6 512 256C512 397.4 397.4 512 256 512C114.6 512 0 397.4 0 256zM256 320C211.8 320 176 355.8 176 400C176 408.8 183.2 416 192 416H320C328.8 416 336 408.8 336 400C336 355.8 300.2 320 256 320zM176.4 192C158.7 192 144.4 206.3 144.4 224C144.4 241.7 158.7 256 176.4 256C194 256 208.4 241.7 208.4 224C208.4 206.3 194 192 176.4 192zM336.4 256C354 256 368.4 241.7 368.4 224C368.4 206.3 354 192 336.4 192C318.7 192 304.4 206.3 304.4 224C304.4 241.7 318.7 256 336.4 256zM208 112C208 103.2 200.8 96 192 96C186.2 96 180.4 96.38 174.8 97.13C146.6 100.9 121.1 113.6 101.1 132.3C94.62 138.3 94.28 148.5 100.3 154.9C106.3 161.4 116.5 161.7 122.9 155.7C138.4 141.2 157.8 131.7 178.1 128.9C183.2 128.3 187.6 128 192 128C200.8 128 208 120.8 208 112zM389.1 155.7C395.5 161.7 405.7 161.4 411.7 154.9C417.7 148.5 417.4 138.3 410.9 132.3C390.9 113.6 365.4 100.9 337.2 97.13C331.6 96.38 325.8 96 320 96C311.2 96 304 103.2 304 112C304 120.8 311.2 128 320 128C324.4 128 328.8 128.3 333 128.9C354.2 131.7 373.6 141.2 389.1 155.7z"/></svg>
